picto/do-not-throw-items-out-of-the-window-framed.svg

<svg class="color-immutable" width="30" height="30" viewBox="0 0 30 30" fill="none" xmlns="http://www.w3.org/2000/svg"><path d="M29.9999 0H0V29.9999H29.9999V0Z" fill="#2D327D"/><path d="M25.4999 2.99999C26.3249 2.99999 26.9999 3.67499 26.9999 4.49999V25.4999C26.9999 26.3249 26.3249 26.9999 25.4999 26.9999H4.49999C3.67499 26.9999 2.99999 26.3249 2.99999 25.4999V4.49999C2.99999 3.67499 3.67499 2.99999 4.49999 2.99999H25.4999ZM25.4999 2.62499H4.49999C3.46612 2.62499 2.62499 3.46612 2.62499 4.49999V25.4999C2.62499 26.5338 3.46612 27.3749 4.49999 27.3749H25.4999C26.5338 27.3749 27.3749 26.5338 27.3749 25.4999V4.49999C27.3749 3.46612 26.5338 2.62499 25.4999 2.62499Z" fill="white"/><path d="M6.06395 19.432L8.19162 17.3337C8.31619 17.2104 8.51757 17.2117 8.64117 17.3365L8.87149 17.5701L7.32425 19.098L7.55705 19.3339L9.54379 17.3723C9.66852 17.2491 9.86989 17.2502 9.99296 17.3752L10.2237 17.6087L8.01124 19.7937L8.24367 20.0292L10.8867 17.4199C11.0115 17.2968 11.2128 17.2978 11.3364 17.4231L11.5669 17.6565L8.69764 20.4894L8.93074 20.7252L12.2421 17.4553C12.4302 17.2692 12.7337 17.2713 12.9196 17.4594C13.1056 17.6475 13.1037 17.9514 12.9154 18.1374L9.36274 21.6488C9.05719 21.9506 9.05412 22.4433 9.35577 22.749C9.50269 22.8977 9.69462 22.9748 9.88789 22.9799L11.628 22.9817L11.8188 22.9902C11.9498 22.999 12.0786 23.0537 12.178 23.1548C12.2942 23.2725 12.3471 23.4292 12.3372 23.5824L12.3367 23.6717C12.3399 23.7611 12.3074 23.8515 12.2388 23.9195C12.1708 23.9864 12.0809 24.0182 11.9925 24.0143L6.06477 24.0138" fill="white"/><path d="M24.1683 23.0572L19.7769 18.6658H23.3127C23.7271 18.6658 24.0638 18.3216 24.0638 17.8984V6.79843C24.0638 6.37521 23.7271 6.03089 23.3127 6.03089H7.14189L6.82667 5.71566L5.7661 6.77623L6.0664 7.07653V17.8984C6.0664 18.2377 6.28457 18.5232 6.58397 18.6241L7.18569 18.0308H6.81737C6.75287 18.0308 6.7003 17.9713 6.7003 17.8984V14.0719H11.2188L11.5941 13.6971H6.7003V7.71051L12.2617 13.2719L11.3083 14.227C11.121 14.4147 11.1229 14.7201 11.3125 14.9094L12.8571 16.4514C13.0467 16.6406 13.3522 16.6419 13.5395 16.4543L14.4909 15.5012L17.0206 18.0309H13.2262C13.1918 18.126 13.1371 18.2135 13.0631 18.2867L12.6793 18.6659H17.6556L23.1079 24.1181L24.1683 23.0572ZM15.5506 14.4396L16.2312 13.7578C17.021 12.9666 16.8874 11.747 17.3412 11.2923L17.3404 11.2915C17.7942 10.8369 18.6867 9.73655 18.6867 9.73655L18.695 9.74368C18.7426 9.78448 18.8137 9.7817 18.858 9.7373L19.0338 9.5612C19.0806 9.51433 19.0804 9.43813 19.0332 9.39103L18.3502 8.70928C18.3031 8.66218 18.2269 8.6621 18.1801 8.70898L18.0051 8.88425C17.9605 8.92895 17.9581 9.00065 17.9998 9.04813L18.0048 9.05375C18.0048 9.05375 16.9174 9.96148 16.4636 10.4161C16.0098 10.8708 14.7899 10.7392 14.0001 11.5304L13.3215 12.2102L7.77699 6.66576H23.3128C23.3777 6.66576 23.4302 6.72523 23.4302 6.79828V13.6969H16.5391L16.164 14.0718H23.4302V17.8983C23.4302 17.9712 23.3777 18.0306 23.3128 18.0306H19.142L15.5506 14.4396Z" fill="white"/><path d="M6.82667 5.71566L5.7661 6.77623L23.1078 24.1181L24.1683 23.0572L6.82667 5.71566Z" fill="#EB0000"/></svg>

<svg class="color-immutable" width="30" height="30" viewBox="0 0 30 30" fill="none" xmlns="http://www.w3.org/2000/svg"><path d="M30 0H0v30h30V0Z" fill="#2D327D"/><path d="M25.5 3c.825 0 1.5.675 1.5 1.5v21c0 .825-.675 1.5-1.5 1.5h-21c-.825 0-1.5-.675-1.5-1.5v-21C3 3.675 3.675 3 4.5 3h21Zm0-.375h-21A1.877 1.877 0 0 0 2.625 4.5v21c0 1.034.841 1.875 1.875 1.875h21a1.877 1.877 0 0 0 1.875-1.875v-21A1.877 1.877 0 0 0 25.5 2.625Z" fill="#fff"/><path d="m6.064 19.432 2.128-2.098a.318.318 0 0 1 .45.003l.23.233-1.548 1.528.233.236 1.987-1.962a.317.317 0 0 1 .449.003l.23.234-2.212 2.185.233.235 2.643-2.61a.318.318 0 0 1 .45.004l.23.234-2.87 2.832.234.236 3.311-3.27a.479.479 0 1 1 .673.682L9.363 21.65a.778.778 0 0 0 .525 1.33l1.74.003.19.008a.554.554 0 0 1 .52.592l-.001.09a.33.33 0 0 1-.345.342H6.066" fill="#fff"/><path d="m24.168 23.057-4.391-4.391h3.536a.76.76 0 0 0 .75-.768v-11.1a.76.76 0 0 0-.75-.767H7.142l-.315-.315-1.06 1.06.3.3v10.822c0 .34.218.625.517.726l.602-.593h-.369c-.064 0-.117-.06-.117-.133v-3.826h4.519l.375-.375H6.7V7.711l5.562 5.56-.954.956a.483.483 0 0 0 .005.682l1.544 1.542c.19.19.495.19.683.003l.95-.953 2.53 2.53h-3.794a.688.688 0 0 1-.163.256l-.384.379h4.977l5.452 5.452 1.06-1.06Zm-8.617-8.617.68-.682c.79-.791.656-2.011 1.11-2.466.453-.455 1.346-1.555 1.346-1.555l.008.007a.12.12 0 0 0 .163-.007l.176-.176a.12.12 0 0 0 0-.17l-.684-.682a.12.12 0 0 0-.17 0l-.175.175a.12.12 0 0 0-.005.164l.005.006s-1.088.907-1.541 1.362c-.454.455-1.674.323-2.464 1.114l-.678.68-5.545-5.544h15.536c.065 0 .117.06.117.132v6.899h-6.89l-.376.375h7.266v3.826c0 .073-.052.133-.117.133h-4.171l-3.591-3.591Z" fill="#fff"/><path d="m6.827 5.716-1.06 1.06 17.34 17.342 1.061-1.06L6.827 5.715Z" fill="#EB0000"/></svg>
